X:10002
T:Jingle Bells
R:March
C:James Lord Pierpont, 1857
O:USA
Z:Paul Hardy's Xmas Tunebook 2019 (see www.paulhardy.net). Creative Commons cc by-nc-sa licenced.
M:4/4
L:1/4
Q:1/4=200
K:G
"G"DB AG|D3 D/2D/2|DB AG|"C"E4|"Am"Ec BA|"D7"F3 z/2 F/2|dd cA|"G"B3 z/2 D/2|
DB AG|D3 z/2 D/2|DB AG|"C"E3 z/2 E/2|"Am"Ec BA|"G"dd dd|"D7"ed cA|"G"G2 "D7"d2|
"G"BB B2|BB B2|Bd G3/2A/2|B4|"C"cc c3/2c/2|"G"cB BB/2B/2|"A7"BA AB|"D7"A2 d2|
"G"BB B2|BB B2|Bd G3/2A/2|B4|"C"cc c3/2c/2|"G"cB BB/2B/2|"D7"dd cA|"G"G2 z2|]
W:Dashing through the snow
W:In a one-horse open sleigh
W:O'er the fields we go
W:Laughing all the way
W:Bells on bobtail ring
W:Making spirits bright
W:Oh, what fun it is to sing
W:A sleighing song tonight
W:
W:Jingle bells, jingle bells,
W:Jingle all the way;
W:Oh! what fun it is to ride
W:In a one-horse open sleigh.
W:Jingle bells, jingle bells,
W:Jingle all the way;
W:Oh! what fun it is to ride
W:In a one-horse open sleigh.

